X:1
T:Songs and Dances of Death
%%score 1 { ( 2 4 ) | ( 3 5 ) }
L:1/8
Q:1/4=52
M:4/4
K:C
V:1 treble nm="Женщина"
V:2 bass nm="Piano"
V:4 bass 
V:3 bass 
V:5 bass 
V:1
"^Songs and Dances of Death\nl\nyrics by A. A. Golenishchev-Kutuzov \n            \nM. Mussorgsky\n      I.\n Lullaby (Колыбельная) (14 April 1875) \n        \n                    (F-sharp minor–A minor)\n\nA mother cradles her sick infant, who grows more feverish. \nDeath appears, disguised as a babysitter, \nand rocks the infant to eternal sleep.\n\n\n\n""^Lento doloroso" z8 | %1
w: |
w: |
 z8 | z8 | z8 | !>!^G2 G3/2 G/ A2 ^E !fermata!z |[Q:1/4=55] z8 | z4 z2 z ^F | ^F z z F/ F/ F2 F z | %8
w: |||Сто нет ре- бё- нок.||Све-|ча, на- га- ра- я,|
w: |||||||
 ^G2 G G A2 A G | ^E2 z2 z4 | ^F2 F F D2 =E D | ^F2 F F (D2 E) D | ^G2- G z z2 ^F F | %13
w: тус- кло мер- ца- ет кру-|гом.|Це- лу- ю ночь, ко- лы-|бель- ку ка- ча- * я,|мать * не за-|
w: |||||
 E2"^poco ritard." D ^F ^C4 | z8 |[Q:1/4=114]"^Moderato tranquillo" ^A,2 ^C C ^F3/2 F/ ^E z | %16
w: бы- ла- ся сном.||Ра- ным ра- нё- хонь- ко|
w: |||
 ^G2"^a mezza voce" ^F F ^B2 G z |!<(! ^E z ^G G!<)! ^D3/2 ^C/ C z | %18
w: вдверь- о- сто- рож- но|смерть сер- до- боль- на- я|
w: ||
 !^!^c z z2!f! ^B3/2"^agitato" =F/ A2 | =B z B B!>(! c2 B3/2 A/ | ^c2!>)! A z[Q:1/4=50] z4 | %21
w: стук! Вздрог- ну- ла|мать, ог- гля- ну- лась тре-|вож- но...|
w: |||
[Q:1/4=52]"^Lento funesto" (3A ^F F (3A E =F E2 z2 | ^C2 ^F A ^G2 E G | ^C2 ^F A ^G2 E z | %24
w: "Пол- но пу- гать- ся, мой друг!|Блед- но- е ут- ро уж|смо- тритв о- кош- ко.|
w: |||
 z4 ^F2 E z/ F/ | E2 _E z/ D/ A z (3B ^c B | =E2 A z z2 z E |[M:3/4][Q:1/4=70] (3G E ^F ^C2 C z | %28
w: Пла- ча, тос-|ку- я лю- бя, ты у- то-|ми- лась. Вздрем-|ни- ко нем- нож- ко,|
w: ||||
[M:4/4] B,2- (3B, B, ^C (3B, C B, D2 | _E2 (3:2:2E2 E E2 (3:2:2E2 E | D2 (3G A _B D2 G z | %31
w: я * по- си- жу за те- бя.|У- го- мо- нить ты ди-|тя не су су- ме- ла;|
w: |||
"^rallent.\ncantable\n"!>(! (3=B E G (3B ^F B!>)! E2 z2 | %32
w: сла- ще те- бя я спо- ю."|
w: |
!pp![Q:1/4=52]"^Agitato pathetico" ^F ^C z F F3/2 A/ ^c2 | d3/2 A/ A z ^c2 ^G z | %34
w: "Ти- ше! Ре- бё- нок мой|ме- чит- ся, бьёт- ся,|
w: ||
 ^c^G =G G ^F2 A B |[Q:1/4=52]"^Lento funesto" ^G z (3^c ^F G (3A F F (3A E =F | %36
w: ду- * шу тер- за- ет мо-|ю!" "Ну, да со мно- ю он ско- ро уё-|
w: ||
 E[Q:1/4=30] !fermata!E"^allargando" (3A ^D _E (3A =D A =C z |[Q:1/4=120] c2 A c ^G2 G z/!<(! G/ | %38
w: мёт- ся. Ба- юш- ки, ба- ю, ба- ю."|"Щеч- ки блед- не- ют, сла-|
w: ||
 =G2 _B!<)! G B2 A z | z A d ^c!>(! ^f2 e!>)! z/ d/ |[Q:1/4=50] ^c z (3A E E (3^F F F (3A E =F | %41
w: бе- ет ды- ха- нье...|Да за- мол- чи же, мо-|лю!" "Доб- ро- е зна- ме- нье: стих- нет стра-|
w: |||
 E[Q:1/4=40] !fermata!E"^allargando" (3A ^D _E (3A =D A =C z | %42
w: да- нье. Ба- юш- ки, ба- ю, ба- ю."|
w: |
[Q:1/4=52]"^Agitato"!mf! (3:2:4B/ z/ F A (3F3/2 E/ E"^con dolore"[Q:1/4=70] G2 G A | %43
w: "Прочь ты, про- кля- та- я! Лас- кой сво-|
w: |
 F2 D z F2 E3/2 B/ |!>(! F2 E3/2!>)! c/ A!p![Q:1/4=50] z[Q:1/4=52]"^Tranquillo" A2 | %45
w: е- ю сгу- бишь ты|ра- дость мо- ю." "Нет,|
w: ||
[Q:1/4=50] z2 ^F ^G (3A F F (3A E =F | E !fermata!E"^allargando"[Q:1/4=40] (3A ^D D (3A =D A C z | %47
w: мир- ный сон я мла- ден- цу на-|ве- ю. Ба- юш- ки, ба- ю, ба- ю."|
w: ||
[Q:1/4=52]"^Agitato"[Q:1/4=70] ^G2 (3F z A (3_B A B =B2 | c2 ^c3/2 c/ c2 A2 | F3/2 E/ D2 A2 F D | %50
w: "Сжаль- ся пож- ди до- пе- вать,|хоть * мгно- ве- нье,|страш- ну- ю пес- ню тво-|
w: |||
[Q:1/4=52]"^Lento" ^C z z"^tranquillo" A E z z2 | z2 ^F2[Q:1/4=40] (3A F F (3A E =F | %52
w: ю!" "Ви- дишь,|ус- нул он под ти- хо- е|
w: ||
 E2 E z"^rallentando" (3A2 ^D2 _E2 | (3A2 D2 A2 A, z !fermata!z2 |] %54
w: пе- нье Ба- юш- ки,|ба- ю, ба- ю."|
w: ||
[M:2/4]"^II. Serenade (Серенада) (11 May 1875) \n                       (E minor–E-flat minor\n)\n\nThe figure of Death waits outside the window of a dying woman, \nin the manner of a wooing lover.\n\n"[Q:1/4=114]"^Moderato" !fermata!z4 | %55
w: |
w: |
!p! c2 A ^F | c3/2 c/ B z | A2 A B | ^D2 D z | E3/2 G/ ^A2 | d2 c c | G4 | z4 | ^F2"^cresc." ^D D | %64
w: Не- га вол-|шеб- на- я,|ночь го- лу-|ба- я,|тре- пет- ный|сум- рак вес-|ны...||Внем- лет, по-|
w: |||||||||
 c2 B c | A2 G ^F | B2 A2 |"^dim." G4 | ^F2 E2 | A2 A E | G2 z2 | G2"^cresc." ^G G | f2 e e | %73
w: ник- нув го-|лов- кой, боль-|на- я...|шё-|пот ноч-|ной ти- ши-|ны.|Сон не смы-|ка- ет- бле-|
w: |||||||||
 d2 c B | e2 d z |"^dim." c4 | B2 A2 | D4 | C3 C | E2- E z |!p! ^D2 D D | B2 B B | ^D2 D D | %83
w: стя- щи- е-|о- чи,|жизнь|кна- слаж-|де-|нью- зо-|вёт; *|а под о-|кош- ком вмол-|ча- ньи пол-|
w: ||||||||||
 B2 B2 |!<(! _A2 A A!<)! |"^rall."[Q:1/4=120] _A2[Q:1/4=110]!>(! A A | %86
w: но- чи|смерть се- ре-|на- ду- по-|
w: |||
[Q:1/4=100] _A2-[Q:1/4=90] A!>)![Q:1/4=70] z || %87
w: ёт: *|
w: |
[K:Gb][M:6/8]!p![Q:1/4=94]"^L'istesso tempo alla breve" B3 A- A (E/=D/) | B2- B A2 (E/=D/) | %89
w: "Вмра- ке * не- *|во- * ли, су- *|
w: ||
 (B3 _d) =c d | B3 F2 z | z6 | B3 A2 (E/=D/) | (B3 _d) =c d | B3 z3 |!f! (B3!<(!{/d} c) B c!<)! | %96
w: ро- * вой и|тес- ной,||Мо- ло- * дость|вя- * нет тво-|я;|ры- * царь не-|
w: |||||||
 (d3!>(! e2) c!>)! | B2 z!<(! c B c!<)! | (d3!>(! e2 c)!>)! | B z B (cB) c | B3 e2 e | B2 z4 | z6 | %103
w: ве- * до-|мый, си- лой чу-|дес- * *|ной ос- во- * бо-|жу я те-|бя.||
w: |||||||
[M:9/8] z9 |[M:6/8]!p! (B2 A2) E =D | B A B A/ z/"^cresc." E =D | B2 B c B c | d3!>(! e2 c!>)! | %108
w: |Встань, * по- смо-|три на се- бя: кра- со-|то- ю лик твой про-|зрач- ный бле-|
w: |||||
 B2 z!>(! d =c d | B3!>)! F z"^cresc." B | (B3 c) B c | (d3 e2) c | (B3 c) B c | B3 e2 e | %114
w: стит, щё- ки ру-|мя- ны, вол-|нис- * той ко-|со- * ю|стан * твой, как|ту- чей об-|
w: ||||||
 B2 z z3 | z6 | z6 |!p!"^poco capricioso" G3- G G _f | __e2 z _f2 e |!<(! G3 Ac __e!<)! | %120
w: вит.|||При- * сталь- ных|глаз го- лу-|бо- е * си-|
w: ||||||
!>(! d3!>)! G2 z | z6 |!<(! G6- | G3!<)!!>(! _f2 __e!>)! |!<(! G3 Ac =d!<)! |!>(! d3- d2!>)! z | %126
w: я- нье,||яр-|* че не-|бес и * ог-|ня. *|
w: ||||||
 z6 | z6 |!p! D3 (_FA) c | __A2 A G3 | G3 B2 G | c3 G2 z |"^poco rallentando" B3 _F2 F | %133
w: ||Зно- ем * по-|лу- ден- ным|ве- ет ды-|ха- нье...|Ты о- боль-|
w: |||||||
 B3 (EC) c | B2 z z3 |"^a tempo tranquillo" B3 A2 (E/=D/) | B3 A2 (E/=D/) | (B3 _d) =c d | %138
w: сти- ла * ме-|ня.|Слух твой пле- *|нил- ся мо- *|ей * се- ре-|
w: |||||
 B3 F2 z | z6 | B2 B A3 | (B3 _d) =c d | B3 z3 |!f! (B3!<(!{/d} c) B c!<)! | %144
w: на- дой,||ры- ца- ря|щё- * пот твой|звал.|Ры- * царь при-|
w: ||||||
!<(! d3!<)!!>(! e2 c!>)! | (B3!<(! c) B c!<)! | (d3!>(! e2 c)!>)! | B2 z c B c | B3 e2 e | B3 z3 | %150
w: щёл за по-|след- * ней наг-|ра- * *|дой час у- по-|е- нья на-|стал|
w: ||||||
 z6 | z6 |!pp! E3- E G __B | (A3 _F) z2 |[M:9/8] z A c B E B B2 E |[M:6/8] =G3!<(! E2 B!<)! | %156
w: ||Не- * жен твой|стан, *|у- по- и- те- лен тре- пет.|О, за- ду-|
w: ||||||
 d3 d2 A | c3 c G c |!>(! B2 E!>)! z2 z |!pp! z2 E E A =c | c2 _F A2 E | %161
w: шу я те-|бя вкреп- ких объ-|ять- ях;|лю- бов- ный мой|ле- пет слу- шай...|
w: |||||
 z2 z!ppp! z2"^parlando" G |[Q:1/4=50] E[Q:1/4=100] z z z3 | z3!f!!<(! E2 e!<)! | e3- e- e z | %165
w: мол-|чи...|Ты мо-|я!" * *|
w: ||||
 !fermata!z6 |] %166
w: |
w: |
[K:F][M:4/4]"^III. Trepak (Трепак) (17 February 1875) (in D minor)\n\n\nA drunken peasant stumbles outside into the snow and becomes caught \nin a blizzard.\nThe figure of Death invites him to dance a folk-dance called the Trepak. \nAs he freezes to death, he dreams of summer fields and doves.\n\n"[Q:1/4=52]"^Lento assai. Tranquillo" z2!p! A2- A z A A | %167
w: Лес * да по-|
w: |
 c2 A z z2 A2 | (3^c2 A2 ^G2 ^F2[Q:1/4=30] !fermata!z2 |[Q:1/4=60] (A2 _B2) A2 A2 | G2 E E F2 D z | %171
w: ля- ны, без-|лю- дье кру- гом.|Вью- * га и|пла- чет и сто- нет;|
w: ||||
 (3G2 G2 G2 z2 A A | z2 B2 A4 | G2 E2 F2- F z |!<(! G2!<)! _E2 z2!p! G2 | G2 =E A F2 D2 | %176
w: чу- ет- ся, буд- то|во мра-|ке ноч- ном *|зла- я, ко-|го- то хо- ро- нит.|
w: |||||
 z4 A z z2 |[Q:1/4=120]"^Poco a poco piu mosso" z2 E F D2 z2 | A2 B2 (A2 B) z | z2 E A (F2 D) z | %180
w: Глядь,|так и есть!|||
w: ||Втем- но- те *|му- жи- ка *|
 A2 B d A2 B d |!<(! A6!<)! ^c z |[Q:1/4=90] A2 A ^c A2 G B | A2 A ^c A2- A z | %184
w: ||||
w: смерть об- ни- ма- ет, лас-|ка- ет;|спья- нень- ким пля- шет вдво-|ём тре- па- ка. *|
"^poco rallent."!<(! G2 E A G2 E A!<)! |!>(! G6!>)! A z | %186
w: ||
w: на у- хо песнь на- пе-|ва- ет:|
[Q:1/4=116]"^Allegretto moderato e pesante" A2 A B A2 A A | G2 E2 F2 D z | A2 A B A2 A A | %189
w: |||
w: "Ох, му- жи- чок, ста- ри-|чок у бо- гой,|пьян на- пил- ся, по- плел-|
 G2 E2 F2 D z |[M:3/2]!f! d2 d2 d2 B2 d2 c2 | d2 d2 d2 B2 d2 c2 | B2 f2 _e2 B2 ^c2 d2 | %193
w: ||||
w: ся до- ро- гой;|а ме- тель то, ведь- ма,|под- ня- лась, взы- гра- ла,|спо- ля влес дре- му- чий|
 B2 f2 _e2 B2 ^c2 d2 |[M:4/4]!mf![Q:1/4=114]"^Poco meno mosso" A4 A2 A2 | %195
w: ||
w: не взна- чай за- гна- ла.|Го- рем, тос-|
[M:3/2] G2 G G F2 E2 F2 D z |[M:4/4] A4 A2 A2 |[M:3/2] G2 G G F2 E2 F2 D z | %198
w: |||
w: кой да нуж- дой то- ми- мый,|ляг, при- кор-|ни да ус- ни, ро- ди- мый!|
[M:4/4]!p! _E2 (EF)!<(! E2 E2!<)! | B2 B2 A z F2 | A2 E2 F2 D2 | D2 (DE) D2 F2 | G2 D2 E2 G2 | %203
w: |||||
w: Я те- * бя, го-|луб- чик мой, снеж-|ком со- гре- ю,|вкруг те- * бя ве-|ли- ку- ю иг-|
 A2 F2 A2 E z |[M:3/2][Q:1/4=130] z2!f! d4 A d B2 G B |[M:4/4] A z E2 F2 D z | %206
w: |Взбей- ко по- стель, ты ме-|тель ле- бёд- ка!|
w: ру за- те- ю.|||
[M:3/2] z2!f! d4 A d B2 G B |[M:4/4] A z E2 F2 D z | %208
w: Гей, на- чи- най, за- пе-|вай, по- год- ка!|
w: ||
[M:3/2]!mf![Q:1/4=116]"^Meno allargando, mosso" _E2 (EF) E2 E2 B2 A2 | z2 A F A2 E2 F2 D z | %210
w: ||
w: Сказ- ку * да та- ку- ю,|чтоб всю ночь тя- ну- лась,|
 _E2 (EF) E2 E2 B2 A2 | z2 A F A2 =E2 F2 D z |[M:4/4][Q:1/4=144]"^poco a poco a tempo" z8 | z8 | %214
w: ||||
w: чтоб пьян- * чу- ге креп- ко|под не- ё за- сну- лось.|||
!p![Q:1/4=116]"^a tempo" A2 A B A2 A A | G2 E2 F2 D z | A2 A B A2 A A | G2 E2 F2 D z | %218
w: Ой вы, ле- са, не- бе-|са да ту- чи,|темь, ве- те- рок да сне-|жок ле- ту- чий,|
w: ||||
[M:3/2] F2 F2 F2 D2 G2 E2 | F2 F2 F2 D2 G2 E2 | F2 F2 _E2 B2 A2 F z | D2 F2 _E2 B2 A2 F z | %222
w: свей- тесь пе- ле- но- ю,|снеж- ной пу- хо- во- ю;|е- ю, как мла- ден- ца,|ста- рич- ка при- кро- ю.|
w: ||||
[M:4/4][Q:1/4=140] z8[Q:1/4=110][Q:1/4=100][Q:1/4=70] | %223
w: |
w: |
!p![Q:1/4=92]"^Andante tranquillo" !fermata!B4 G2 (FE) | F2 D F E2 A2 | %225
w: Спи, мой дру- *|жок, му- жи- чок счаст-|
w: ||
[Q:1/4=80]"^Piu mosso" F D z2 z4 |[M:6/4][Q:1/4=92]"^a tempo" B2 F B G2 G D A2- A z | %227
w: ли- вый,|ле- то при- шло, рас- цве- ло! *|
w: ||
[M:4/4][Q:1/4=80]"^Piu mosso" z8 |[Q:1/4=92]"^a tempo" z2 A2 A3 A | F A G F E2 D z | D2 F2 G4 | %231
w: |Над ни- вой|сол- ныш- ко сме- ёт- ся|да- сер- пы|
w: ||||
 z2 G2 D2 D z |[Q:1/4=92]"^poco a poco ralle dim." B d c B A2 ^F z | z =F/ F/ G B A2 A z | %234
w: гу- ля- ют;|пе- сен- ка не- сёт- ся,|го- луб- ки ле- та- ют"...|
w: |||
[Q:1/4=60]"^Piu mosso" z4 z4 |[Q:1/4=40] z4[Q:1/4=92]"^a tempo" z4 |[Q:1/4=80]"^Piu mosso" z4 z4 | %237
w: |||
w: |||
[Q:1/4=40] z8 |[Q:1/4=70]"^a tempo" z8 | z8 |] %240
w: |||
w: |||
[K:Gb][M:4/4]"^IV. The Field Marshal (Полководец) (5 June 1877) \n                       (E-flat minor–D minor)\n\n\nThe figure of Death is depicted as an officer marshaling, illuminated by \nthe moon, the dead troops of both armies after a dreadful and bloody battle. \nShe tells them: in life you were enemies but now you are comrades, because \nyou're all dead, and I am your commanding officer. \nShe assures them that although the living will forget about them, she will \nremember them, and will harden the earth above them so that they \ncannot be resurrected.\n\n\n\n"[Q:1/4=172]"_Vivo-alla guerra" z8 | %241
w: |
w: |
 z2 z!f! B B3 B | e2 B2 z4 | e4 f4 | g4 f2 z f | f2 =c2 f3/2 f/ f g | e2 z e e2 d2 | e2 z e f3 f | %248
w: Гро- хо- чет|бит- ва,|бле- щут|бро- ни, о-|ру- дья мед- ны- е ре-|вут, бе- гут пол-|ки, не- сут- ся|
w: |||||||
 g4 f z f2 | =c2 c2 c3/2 c/ c c | f2- f z z4 | z2 z3/2 B/ B3 B | =d2 B2 z4 | z4 B3 B | %254
w: ко- ни и|ре- ки крас- ны- е те-|кут *|пы- ла- ет|пол- день,|лю- ди|
w: ||||||
 e2 B2 z2 z B | d6 d2 | d6 d z | e3 e a2- a z | z4 z2 z a | e6 e2 | e2 c2 z2 e3/2 e/ | %261
w: бьют- ся! Скло-|ни- лось|солн- це,|бой силь- ней! *|За-|кат блед-|не- ет, но де-|
w: |||||||
 a2 e3/2 =d/ a2 z3/2 f/ | g8- | g3 e e2 g2 | e4 z4 | z8[Q:1/4=100][Q:1/4=80] | %266
w: рут- ся вра- ги всё|я-|* рост- ней и|злей!||
w: |||||
[Q:1/4=90]"^Moderato assai" z2 z A e3 e | f3/2 d/ d d =c2 =A z |"^risoluto" z2 F2 B2 B2 | %269
w: И па- ла|ночь на по- ле бра- ни.|Дру- жи- ны|
w: |||
 c2 d2 z2 e e | f z!pp! z2 f2 =d B | z2[Q:1/4=80]!<(! B B d2 B2 | %272
w: вмра- ке ра- зо-|шлись... Всё сти- хло,|и вноч- ном ту-|
w: |||
 e2!<)! e[Q:1/4=60] z/ e/!>(! !>!e2 d2 | !>!d2!>)! c z2 z B c | B2 z2 z2 z!mf! B | %275
w: ма- не сте- на- нья|кне- бу под- ня-|лись. Тог-|
w: |||
[Q:1/4=52]"^Grave. Marziale" d3/2 d/ =c3/2 A/ d3 c | d2 A z A2 =c3/2 F/ | d3/2 d/ =c3/2 F/ d2 z c | %278
w: да о- за- ре- на лу-|но- ю, на бо- е-|вом сво- ём ко- не ко-|
w: |||
 d3 d A3/2 A/ B3/2 G/ | d2 B z z2!f! ^c2 | ^d2 ^c2 =A2- A !fermata!z || %281
w: стей свер- ка- я бе- лиз-|но- ю, я-|ви- лась смерть. *|
w: |||
[K:C]!p![Q:1/4=120]"^Andantino alla marcia" A4 A2 A2 | A6 A2 | A4 A4 | A3 A A2 A2 | _B6 A z | %286
w: И вти- ши-|не, вни-|ма- я|воп- ли и мо-|лит- вы,|
w: |||||
 z2 z A c3 c | _B3 B c2 B2 | A2- A z z4 |[Q:1/4=114]"^Risoluto" A2 c c B2 d z | d2 e2 f2 c c | %291
w: до- воль- ства|гор- до- го пол-|на, *|как пол- ко- во- дец,|ме- сто бит- вы кру-|
w: |||||
 d3 d e3/2 B/ B e | e2- e z z4 | z A _B3/2 B/ ^c2 d z | z2 f3/2 f/[Q:1/4=40] f2 e z | %295
w: гом объ- е- ха- ла о-|на. *|На холм под- няв- шись,|о- гля- ну- лась,|
w: ||||
"^a mezzu voce"[Q:1/4=80] z A A A c2 A z |"^dolce" c3 c[Q:1/4=60] B2 A z | %297
w: о- ста- но- ви- лась,|у- лыб- ну- лась...|
w: ||
 z4!mf![Q:1/4=100] A2 A A | _B B _e e d3/2 d/ ^c d |!<(! =e e d3/2 d/!<)! a2 z2 || %300
w: И над ра-|ни- ной бо- е- вой про- нёс- ся|го- лос ро- ко- вой:|
w: |||
[K:F]!f![Q:1/4=71]"^Tempo di marcia. Grave. Pomposo" a3/2 a/ a2 g2 g z/ g/ | f2 f3/2 e/ (ed) a z | %302
w: "Кон- че- на бит- ва! Я|всех по- бе- ди- * ла!|
w: ||
 d2 e f c2 d3/2 c/ | B2 c B A2 z2 |"^dolce" A2!<(! =B ^c d3/2 A/!<)! A z | %305
w: Все пре- до- мной вы сми-|ри- лись, бой- цы!|Жизнь вас по- со- ри- ла,|
w: |||
!>(! e2 f e (ed)!>)! ^c z | A2!<(! =B ^c d2 d3/2 d/!<)! |!f!!<(! e2 e d!<)! a2- a z | %308
w: я по- ми- ри- * ла!|Друж- но вста- вай- те на|смотр, мерт- ве- цы! *|
w: |||
!ff![Q:1/4=90] a2 a a g3/2 g/ g2 | f2 f3/2 e/ (ed) a z |[Q:1/4=85] d2 e3/2 f/ c2 d!>(! c | %311
w: Мар- шем тор- жест- вен- ным|ми- мо прой- ди- * те|вой- ско мо- ё я хо-|
w: |||
 B2 c3/2 B/!>)![Q:1/4=80] A2 z2 | %312
w: чу со- счи- тать|
w: |
!mf![Q:1/4=71]"^Meno mosso" A2 =B z/ ^c/"^poco a poco cresc." d2 d d | e2 f3/2 e/ (ed) ^c z | %314
w: Взем- лю по- том сво- и|ко- сти сло- жи- * те,|
w: ||
!mf!!<(! a2[Q:1/4=65] ^g =g!<)! ^f2!>(! =f3/2 f/!>)! | e2[Q:1/4=55] e d e2-[Q:1/4=40] e z | %316
w: слад- ко от жиз- ни взлем-|ле от- ды- хать! *|
w: ||
!p![Q:1/4=94]"^Poco meno mosso" f2 d d _e2 e e | d2 d =e A2 A z | d2 e f c2 d c | %319
w: Го- ды не зри- мо прой-|дут за го- да- ми,|Влю- дях ис- чез- нет и|
w: |||
 B2 c B[Q:1/4=80] A2 z2 |[Q:1/4=100]"^A tempo. Pomposo"!ff! a2 a3/2 a/ g g g2 | %321
w: па- мять о вас.||
w: |Я не за- бу- ду! И|
 f2 f3/2 e/ (ed) a2 | d2 e f c2 d3/2 c/ | B2 c B[Q:1/4=70] A2- A z | %324
w: |||
w: гром- ко над ва- * ми|пир бу- ду пра- вить впо-|лу- ноч- ный час! *|
!mf![Q:1/4=71]"^Meno mosso" A A A2 A3/2 A/ B2 |!<(! A2 f!<)! e!>(! (ed)!>)! A2 | %326
w: ||
w: Пляс- кой, тя- жё- ло- ю,|зем- лю сы- ру- * ю|
!<(! d2 g g!<)! e2!mf! A"^poco a poco rall." A | B2 =B ^c d2 d2 |!<(! e2 f e (ed)!<)! a3/2 a/ | %329
w: |||
w: я при- топ- чу, что- бы|сень гро- бо- ву- ю|ко- сти по- ки- * нуть во|
!>(! ^g2 =g g!>)![Q:1/4=50] e2 z2 | z!ff!"^allargando" d d d g2 g g | f2- f z e4 | %332
w: |||
w: век не мог- ли,|чтоб ни- ког- да вам не|встать * из|
 f4[Q:1/4=42] d2- d !fermata!z |] %333
w: |
w: зем- ли!" *|
V:2
!pp! (^B,,^C,A,^G, ^E,^F,G,A,) |!<(! (D^C=ED ^B,C^E^F)!<)! |!>(! (^GA^E^F!>)!!<(! GA^c^B) | %3
 (A^F^GA!<)! ^f2- f) z |!p! [^E^G]4 A2- A !fermata!z |[K:bass]!pp! (^B,,^C,A,^G, ^E,^F,G,A,) | %6
[K:treble] (D^C=ED ^B,C^E^F) | (^GA^E^F GA^c=B) | (^G^FDB, ^C=EAG) | %9
"_poco dim.\n" (^cA^G^F[K:bass] ^C^G,^E,^C,) | [^FA^f]4[K:bass] [^F,A,^F]4 | %11
 [^FA^f]4[K:bass] [^F,A,^F]4 | [B,D^F^G]4 [A,^CF]4 | %13
[K:bass] [^G,B,E]2 [^F,A,D]2 [^E,G,^C]2- [E,G,C] z | z8 |!pp! ^A,, z ^C, z ^F, z ^E, z | %16
 ^G, z ^F, z ^B, z G, z | ^E, z ^G, z ^D z ^C z | %18
[K:treble] !^![^c^c'] z z2"^agitato"!<(! [^B,=F^B]4!<)! |"_poco dim." [=B,F=B]4 [CFc]4 | %20
 [^CE^c]2- [CEc] z z4 |!p! [A,^C^FA]2 (3:2:2(([A,CEA]2 [D=F]) [CE]) z2 z |!pp! [^c^fa]4 [Be^g]4 | %23
 [A^c^f]4 [^Gce]2- [Gce] z |!<(! z4 (^f2 e) z!<)! |!>(! e2 _e!>)!d A2 (3B^cd | [EA]2- [EA] z z4 | %27
[M:3/4]"^accentuato" (3[_B^ceg][GB=ce][GBc^f] (3[EGBc][EGBd][EGBc] [GBce] z | %28
[M:4/4] (3[DF^G=B][DFG^c][DFGB] (3[DFGd][DFGB][DFGc] (3[DFGB][DFGc][DFGB] [FGBd] z | %29
 (3[_EGA][EG_B][EGA] (3[EG^c][EGA][EGB] (3[EGA][EGB][EGA] (3[EGc][EGA][^CGB] | %30
 (3[DGA][DG_B][DGA] (3[DGd][DGA][DGB] (3[DGA][DGB][DGA] (3[DGd][DEG][DG=B] | %31
 ([^CE]2 [D^F]2 [CE]2) z2 | z4!pp! (^c>!<(!^f) c2!<)! |!>(! (d3!>)! ^f)!<(! c4!<)! | %34
!>(! ^c3 =g!>)! (c2 AB | c) z z2!p! [A,^C^FA]2 (3:2:2([A,CEA]2 [D=F] | %36
 [^CE]) !fermata!z ([B,^D]2 [_B,=D]2 [A,=C]) z |!pp! (c3 a c2 B2- | B2 _Bg B2 A2) | %39
 (^c2 de ^f2 ed | ^c) z z2!p! [A,^C^FA]2 (3:2:2([A,CEA]2 [D=F] | %41
 [^CE]) !fermata!z ([B,^D]2 [_B,=D]2 [A,=C]) z | [B^d=f]2 (3:2:2([B=df]2 e)!pp! [A^c=g]4 | %43
 (^c2 d2) (f2 e2) |!<(! ([Ad]2!<)!!>(! [Be]2!>)! c) z z2 | z4!p! [A,^C^F]2 (3:2:2([A,CEA]2 [D=F] | %46
 [^CE]) !fermata!z ([B,^D]2 [_B,=D]2 [A,=C]) z | !///-!a2 A2 !///-!_b _B !///-!=b =B | %48
 !///-!c' c !///-!^c' ^c !///-!f' f !///-!e' e |!>(! [aa']4 [dd']4!>)! | [ea] z z2 z4 | %51
 z4!p! [A,^C^F]2 (3:2:2([A,CEA]2 [D=F] | [^CE]) z z2!pp! ([B,^DA]4 | %53
 [_B,=DA]4!ppp! [A,=C]) z !fermata!z2 |][M:2/4]!p! !fermata!B4 | %55
!pp! ([A^f]/[^DA]/)([DA]/[Af]/) ([Af]/[DA]/)([DA]/[Af]/) | %56
 ([A^f]/[^DA]/)([DA]/[Af]/) ([Af]/[DA]/)([DA]/[Af]/) | %57
 ([A^f]/[^DA]/)([DA]/[Af]/) ([Af]/[DA]/)([DA]/[Af]/) | %58
 ([A^f]/[^DA]/)([DA]/[Af]/) ([Af]/[DA]/)([DA]/[Af]/) | %59
 ([^Ag]/[EA]/)([EA]/[Ag]/) ([Ag]/[EA]/)([EA]/[Ag]/) | %60
 ([^Ag]/[EA]/)([EA]/[Ag]/) ([Ag]/[EA]/)([EA]/[Ag]/) | %61
 ([^Ag]/[EA]/)([EA]/[Ag]/) ([Ag]/[EA]/)([EA]/[Ag]/) | %62
 ([^Ag]/[EA]/)([EA]/[Ag]/) ([Ag]/[EA]/)([EA]/[Ag]/) | %63
 ([^d^fa]/[^Fd]/)([Fd]/[dfa]/)"_cresc." ([dfa]/[Fd]/)([Fd]/[dfa]/) | %64
 ([^d^fa]/[^Fd]/)([Fd]/[dfa]/) ([dfa]/[Fd]/)([Fd]/[dfa]/) | %65
 ([^d^fa]/[^Fd]/)([Fd]/[dfa]/) ([dfa]/[Fd]/)([Fd]/[dfa]/) | %66
 ([^d^fa]/[^Fd]/)([Fd]/[dfa]/) ([dfa]/[Fd]/)([Fd]/[dfa]/) | %67
"_dim." ([ceg]/[Bc]/)([Bc]/[ceg]/) ([ceg]/[Bc]/)([Bc]/[ceg]/) | %68
 ([ceg]/[Bc]/)([Bc]/[ceg]/) ([ceg]/[Bc]/)([Bc]/[ceg]/) | %69
 ([ceg]/[Bc]/)([Bc]/[ceg]/) ([ceg]/[Bc]/)([Bc]/[ceg]/) | %70
 ([ceg]/[Bc]/)([Bc]/[ceg]/) ([ceg]/[Bc]/)([Bc]/[ceg]/) | %71
 ([^A^cg]/[GAc]/)([GAc]/[Acg]/)"_cresc." ([Bdf]/[^GB]/)([GB]/[Bdf]/) | %72
 ([Bdf]/[^GB]/)([GB]/[Bdf]/) ([Bdf]/[GB]/)([GB]/[Bdf]/) | %73
 ([Bdf]/[^GB]/)([GB]/[Bdf]/) ([Bef]/[GB]/)([GB]/[Bef]/) | %74
 ([Bef]/[^GB]/)([GB]/[Bef]/) ([Bef]/[GB]/)([GB]/[Bef]/) | %75
"_dim." ([Ace]/[FA]/)([FA]/[Ace]/) ([Ace]/[FA]/)([FA]/[Ace]/) | %76
 ([Ace]/[FA]/)([FA]/[Ace]/) ([Ace]/[FA]/)([FA]/[Ace]/) | %77
 ([Ace]/[EA]/)([EA]/[Ace]/) ([Ace]/[EA]/)([EA]/[Ace]/) | %78
 ([Ace]/[EA]/)([EA]/[Ace]/) ([Ace]/[EA]/)([EA]/[Ace]/) | %79
 ([Ace]/[EA]/)([EA]/[Ace]/) ([Ace]/[EA]/)([EA]/[Ace]/) | %80
!ppp! ([A^cd]/[^FA]/)([FA]/[Acd]/) ([FAc]/[^DF]/)([DF]/[FAc]/) | %81
 ([=F^AB]/[=DF]/)[DF]/[FAB]/ ([DFG]/[B,D]/)([B,D]/[DFG]/) | %82
 ([A^cd]/[^FA]/)([FA]/[Acd]/) ([FAc]/[^DF]/)([DF]/[FAc]/) | %83
 ([=F^AB]/[=DF]/)[DF]/[FAB]/ ([DFG]/[B,D]/)([B,D]/[DFG]/) | %84
 ([F_A_B]/[_B,F]/)([B,F]/[FAB]/) ([FAB]/[B,F]/)([B,F]/[FAB]/) | %85
 ([_E_A_B]/!>(![_CE]/)([_CE]/[EAB]/) ([EAB]/[CE]/)([_CE]/[EAB]/) | %86
 ([_E_A_B]/[_B,E]/)([B,E]/[EAB]/) ([EAB]/[B,E]/)([B,E]/[EAB]/)!>)! || %87
[K:Gb][M:6/8]!p! [B,EB]2!<(! [B,EB] [A,A]3!<)! |!p! [B,EB]2!<(! [B,EB]!<)! [A,A]3 | %89
 [B,EB]2 [B,EB] [B,G]2 [B,G] |!<(! B>=AB!<)!!>(! d2 =c!>)! |!p! [B,EB]2!<(! [B,EB]!<)! [A,A]3 | %92
!p! [B,EB]2!<(! [B,EB]!<)! [A,A]3 |!<(! [B,EB]2 [B,EB]!<)!!>(! [B,G]2 [B,G]!>)! | %94
 B>=AB!>(! d2 =c!>)! |!mf! (B,3!<(! CB,C!<)! | D3!>(! E2 C)!>)! | (B,3!<(! CB,C!<)! | %98
 D3!>(! E2 C)!>)! |[K:bass] (B,3 CB,C | =G,3 [F,A,C]3) | B,3 [F,A,]3 | =G,3 [F,_A,C]3 | %103
[M:9/8] (B,6 B,3) |[M:6/8][K:treble]!p! [B,EB]2 [B,EB]!<(! [A,A]3!<)! | %105
 [B,EB]2 [B,EB]!<(! [A,A]3!<)! | (B,3!<(! CB,C!<)! | D3!>(! E2 C)!>)! | %108
!p! [B,EB]2 [B,EB]!>(! [B,G]3 | [B,E]2 [B,EB]!>)! [B,F]2 z | (B,3!<(! CB,C!<)! | D3!>(! E2 C)!>)! | %112
[K:bass] B,3 CB,C | =G,3 [F,A,C]3 |!<(! =G,3!<)! _G,3- |!>(! G,2 z z3!>)! | %116
[K:treble]!pp! [GB]3 [G__B]3- | [GB]3 [G__B]3 | [G__B]6 |!<(! G6!<)! |!>(! G3 G3!>)! | %121
 [GB]3 [G__B]3- | [GB]3 [G__B]3 | [G__B]6 |!<(! G6!<)! |!>(! (G3 G2)!>)! z | %126
!mf! [B,EB]2 [B,EB]!<(! [A,A]3!<)! | [B,EB]2 [B,EB]!<(! [A,A]3!<)! |!pp!!<(! (D3 C3!<)! | %129
!>(! [E__Ae]3!>)! [__EG__e]3) | G3 [__EG]3 |!>(! [Gc]3 [GB]3!>)! |!ppp! [B,FAB]3 [B,_FAB]3 | %133
 [B,EAB]3 [CEAB]3 | [FA]2 z z2 E |!p! [B,EB]2!<(! [B,EB]!<)! [A,A]3 | %136
!p! [B,EB]2!<(! [B,EB]!<)! [A,A]3 | [B,EB]2 [B,EB] [B,G]2 [B,G] |!<(! B>=AB!<)!!>(! d2 =c!>)! | %139
!p! [B,EB]2!<(! [B,EB]!<)! [A,A]3 |!p! [B,EB]2!<(! [B,EB]!<)! [A,A]3 | %141
 [B,EB]2 [B,EB] [B,G]2 [B,G] | B>=AB d2 =c |!mf! (B,3!<(! CB,C!<)! |!<(! D3!<)!!>(! E2 C)!>)! | %145
 (B,3!<(! CB,C!<)! | D3!>(! E2 C)!>)! | B,3 CB,C | ([=G,B,]3 [F,A,CE]3) |!pp! [=G,B,]2 z [FA]3 | %150
 ([=GB]3 [FAce]3 | [=GB]2) z ([=ceg__b]3 | [__B=ceg]3 [GBce]3 | [_FAd]3 [DFA]3 | %154
[M:9/8] [_FAc]3 [D=GB]3 [CEAB]3) |[M:6/8]!<(! [B,E=GB]6!<)! | [CDFA]6 | [C_FAc]3!>(! [=A,EGc]3 | %158
 [B,E=GB]3-!>)! [B,EGB] z z |!pp! [A,=CE]6 | [A,_C__E_F]3 [A,=C_E]3 | z6 |!ppp! [=G,A,=CE] z z z3 | %163
 z6 | z3 !^![EBeg]2 z | !fermata!z6 |][K:F][M:4/4]!p! [CFc]4- [CFc] z z2 | [EAe]4- [EAe] z z2 | %168
!pp! [^c^f^c']4- [cfc']2 !fermata!z2 | %169
[K:bass]!p! !///-!A,!<(! A,, !///-!B, B,,!<)!!>(! !///-!A,2 A,,2!>)! | %170
!<(! !///-!G, G,, !///-!E, E,,!<)!!>(! !///-!F, F,, !///-!D, F,,!>)! | %171
!pp! !///-!G,3 G,,3!<(! !///-!A, A,,!<)! |!>(! !///-!A, A,, !///-!B, B,,!>)! !///-!A,2 A,,2 | %173
!<(!!<(! !///-!G, G,, !///-!E, E,, !///-!F, F,, !///-!D, F,,!<)!!<)! | %174
 !///-!G,2!>(! G,,2 !///-!G,2 G,,2!>)! | !///-!E,2 E,,2 !///-!D,2 D,,2 | %176
 !///-!D,2 D,,2[K:treble]!p! [EAe]2- [EAe] z | z8 | %178
[K:bass] !tenuto![A,,A,]2 !tenuto![B,,B,]2 !tenuto![A,,A,]2 !tenuto![B,,B,]2 | %179
 !tenuto![G,,G,]2 !tenuto!E,2 !tenuto!F,2 !tenuto!D,2 | %180
 !tenuto![A,,A,]2 !tenuto![B,,B,]2 !tenuto![A,,A,]2 !tenuto!G,2 |!<(! (A,6!<)! G,) z | %182
[K:treble]!pp! A(A/B/) .[^CE^GA].[CEGA] .[=C_E=GA].[CEGA] .[=B,DGA].[_B,DGB] | %183
 A(A/B/) .[^CE^GA].[CEGA] .[=C_E=GA].[CEGA] (.[=B,DGA].[_B,DGB]) | %184
 .[=B,DGA].[B,DGA] .[CEGA].[^CEGA] .[B,DGA].[B,DGA] .[=CEGA].[^CEGA] | %185
 .[=B,DGA].[B,DGA] .[CEGA].[^CEGA] .[B,DGA].[B,DGA] .[=CEGA].[^CEGA] |!p! A z (AB A) z ([A,FA]2 | %187
{/A} [B,DG]) z [A,^CE]2 F2 D z | A z (AB A) z ([A,FA]2 |{/A} [B,DG]) z [A,^CE]2 F2 D z | %190
[M:3/2]!mf! z2[K:bass]!<(! [F,DF]2 z2 [D,B,D]2!<)!!>(! ([=B,DG]2 [CE]2)!>)! | %191
!mf! z2[K:bass]!<(! [F,DF]2 z2 [D,B,D]2!<)!!>(! ([=B,DG]2 [CE]2)!>)! | %192
!<(! z2[K:treble] [DFBd]2 [_EGB_e]2 [B,EGB]2 ([=EA^c=e]2 [DFBd]2)!<)! | %193
 z2 [DFBd]2 [_EGB_e]2!<(! [B,EGB]2 ([=EA^c=e]2 [DFBd]2)!<)! | %194
[M:4/4]!p! a2!<(! (ab) [dfa]2{/b} [dfa]2!<)! | %195
[M:3/2]{/a} [B_eg]2{/a} [Beg]2{/g} [A^cf]2!>(!{/f} [Ac=e]2{/g} [Bdf]2{/e} [Ad]!>)! z | %196
[M:4/4]!p! a2!<(! (ab) [dfa]2{/b} [dfa]2!<)! | %197
[M:3/2]{/a} [B_eg]2{/a} [Beg]2!>(!{/g} [A^cf]2{/f} [Ac=e]2{/g} [Bdf]2!>)!{/e} [Ad] z | %198
[M:4/4]!pp! _e2 (ef) e2 e2 | b z ([Bb]2 [da]2 [Af]2 | [^ca]2 [ce]2 [B-f]2 [Bd]) z | %201
 d2 (de) d2 (f2 | g2 d2 e2 g2 | [ca]2 [_Bf]2 [Aa]2 [^ce]) z | %204
[M:3/2]!f! (7:4:7(d'/_e'/d'/^c'/=c'/=b/_b/) (9:8:9(a/4b/4a/4^g/4=g/4^f/4=f/4e/4_e/4) (7:4:7(d/e/d/^c/=c/=B/_B/) (9:8:9(A/4B/4A/4^G/4=G/4^G/4F/4E/4_E/4) (7:4:7(=e/f/e/d/^c/=c/=B/) (10:8:10(_B/4c/4B/4A/4_A/4=G/4^F/4=F/4=E/4_E/4) | %205
[M:4/4]!<(! (7:4:7(A/B/A/^G/=G/^F/=F/)[K:bass] (10:8:10(E/4F/4E/4_E/4D/4^C/4=C/4=B,/4_B,/4A,/4)!<)! (6:4:6(B,/!>(!A,/^G,/=G,/^F,/=F,/) (7:4:7(E,/_E,/D,/^C,/=C,/=B,,/_B,,/)!>)! | %206
[M:3/2][K:treble]!f! (7:4:7(d'/_e'/d'/^c'/=c'/=b/_b/) (9:8:9(a/4b/4a/4^g/4=g/4^f/4=f/4e/4_e/4) (7:4:7(d/e/d/^c/=c/=B/_B/) (9:8:9(A/4B/4A/4^G/4=G/4^G/4F/4E/4_E/4) (7:4:7(=e/f/e/d/^c/=c/=B/) (10:8:10(_B/4c/4B/4A/4_A/4=G/4^F/4=F/4=E/4_E/4) | %207
[M:4/4]!<(! (7:4:7(A/B/A/^G/=G/^F/=F/)[K:bass] (10:8:10(E/4F/4E/4_E/4D/4^C/4=C/4=B,/4_B,/4A,/4)!<)! (6:4:6(B,/!>(!A,/^G,/=G,/^F,/=F,/) (7:4:7(E,/_E,/D,/^C,/=C,/=B,,/_B,,/)!>)! | %208
[M:3/2][K:treble]!p! _e2 (ef e2) e2 (b2 a2) |!<(! (d2 F2) (^c2 E2)!<)!!>(! (B2 D2)!>)! | %210
 _e2 (ef e2) e2 (b2 a2) |!<(! (d2 F2) (^c2 E2)!<)!!>(! (B2 D2)!>)! |[M:4/4]!<(! z8!<)! | %213
!>(! z8!>)! |!pp! [A,DA]8 |!<(! [B,_EG]2 [A,^C=E]2!<)!!>(! [F,B,D]2- [F,B,D] z!>)! | [A,DA]8 | %217
!<(! [B,_EG]2 [A,^C=E]2!<)!!>(! [F,B,D]2- [F,B,D] z!>)! | %218
[M:3/2]!<(! z2[K:bass] [F,DF]4 [F,B,D]2!<)!!>(! [=B,DG]2 [G,CE]2!>)! | %219
!<(! z2 [F,DF]2- [F,DF]2 [F,B,D]2!<)!!>(! [=B,DG]2 [G,CE]2!>)! | %220
 z2 [F,B,D]2!<(! [G,B,_E]2 [_E,G,B,]2!<)!!>(! ([A,^C=E]2 [F,B,D]2)!>)! | %221
 z2 [F,B,D]2!<(! [G,B,_E]2 [_E,G,B,]2!<)!!>(! ([A,^C=E]2 [F,B,D]2)!>)! | %222
[M:4/4]!<(! z4!<)!"^rit." z4 |[K:treble]!pp! (!fermata!d3 f eg{fg}fe | f/e/ d2 A) (c2 Ae) | %225
!mf! .A!<(!(A/B/) .[^CE^GA].[CEGA]!<)!"^rall."!>(! .[=C_E=GA].[CEGA] ([=B,DGA][_B,DGB])!>)! | %226
[M:6/4]!pp! d2 f{/ef}e/!<(!d/ g2 dg!<)!!>(! (a2 A) z!>)! | %227
[M:4/4]!mf! .A!<(!(A/B/) .[^CE^GA].[CEGA]!<)!"^rall."!>(! .[=C_E=GA].[CEGA] ([=B,DGA][_B,DGB])!>)! | %228
!pp! z2 ([df]2 [Ae][df]/[Ae]/ [df][Ae] | [df][Aa]{[eg][fa]}[eg][df] [Ae]2- [Ae]) z | %230
 z2 ([df]2 [ce][Gf]/[ce]/ [Gf][ce] | [Bd][Gf]{[ce][df]}[ce][Bd] [DA]2- [DA]) z | %232
 (_Bd{cd}cB) (A2 d) z | (_Bd{cd}cB) =A2- A z | %234
!mf! A!<(!(A/B/) .[^CE^GA].[CEGA]!<)!"^rall."!>(! .[=C_E=GA].[CEGA] ([CE_GA][B,DFB])!>)! | %235
!p! z4!pp! (_Bd{cd}cB) | %236
[K:bass]!p! A,!<(!(A,/B,/) .[^C,E,^G,A,].[C,E,G,A,]!<)!"^rall."!>(! .[=C,_E,=G,A,].[C,E,G,A,] ([=B,,D,G,A,][_B,,D,G,B,])!>)! | %237
!p! z8 |[K:treble]!pp! [Fc]4 [EAe]4 | !fermata![Ada]8 |] %240
[K:Gb][M:4/4][K:bass]!ff! (3(B,,B,,C, (3D,D,E, (3_F,F,G, (3A,A,B, | %241
 (3CCB, (3=A,A,B, (3=B,B,=C (3DD=D) |!mf! [G,E]6 [F,D]2 | [G,E]4 [F,F]4 | [G,G]4 [F,F]4 | %245
[K:treble] (3x[K:bass]!<(! (F,G, (3=G,G,A, (3=A,B,=B, (3=CD=D)!<)! |!mf! [G,E]6 [F,D]2 | %247
 [G,E]4 [F,F]4 | [G,G]4 [F,F]4 | %249
[K:treble] (3x[K:bass]!<(! (=C,D, (3=D,D,E, (3=E,F,!<)!G,!>(! (3_G,=G,_G,)!>)! | %250
[K:treble] (3x[K:bass]!<(! (F,G, (3=G,G,A, (3=A,A,B,!<)!!>(! (3_CB,A,)!>)! | %251
!mf! z2 [=D,F,]2[K:treble] [=DF]2!<(! [=df]2 | %252
!8va(! [=d'f']2!<)!!8va)! [=df]2!>(! [=DF]2[K:bass] [=D,F,]2!>)! | %253
 !>!B,, z[K:treble]!f! !^![Beg] z !^![GB] z !^![Gce] z | %254
 !^![B,EG] z !^![EGB] z!>(! !^![G,B,E] z !^![B,EG]!>)! z |!mf! z2 [_F,A,]2 [_FA]2!<(! [_fa]2 | %256
!8va(! [_f'a']2!<)!!8va)! [_fa]2!>(! [_FA]2[K:bass] [_F,A,]2!>)! | %257
 !>!B,, z[K:treble] !^![cea] z !^![Ac] z !^![Ace] z | %258
 !^![CEA] z !^![EAc] z!>(! !^![A,CE] z !^![CEA]!>)! z |!p! z2 [CE]2 [ce]2!8va(! [c'e']2!8va)! | %260
!<(! z2 [CE]2 [ce]2!8va(! [c'e']2!<)!!8va)! |!f! z2 !>![A,EA]<[F,B,=D] z2 !>![Aea]<[FB=d] | %262
!ff! [E,E] z [gbe'] z [ega] z [B=dg] z | !>![E,E] z [GBe] z [EGA] z [B,=DG] z | %264
[K:bass] [G,B,] z z2 [=G,A,] z z2 | %265
[K:treble]"_pesante""^rall." !>!G!>!F!>!E!>!D!>(! (=C_CB,__B,)!>)! |!p! A,2- A, z [A,=CE]4 | %267
 [A,DA]4 [=A,=C=A]4 |!pp! F4 [=DFB]2 [EGB]2 |!<(! [CGc]2 [_DGd]2!<)!!>(! [EGe]2 [Ece]2 | %270
 [FBf]!>)! z z2 z4 | z4!pp! ([EAc]2 [=DFB]2 | [EAe]4)"_poco crese." [_FA]4 | %273
 [=EF]4!>(! ([EGc]2 [=DAB]2 | [E=GB])!>)! z z2 z4 | %275
[K:bass]!p! !>!F,-<[F,A,D] !>!F,-<[F,A,=C] !>!F,-<[F,A,D] !>!F,-<[F,A,C] | %276
 !>!F,-<[F,A,D] !>!F,-<[F,A,=C] z4 | %277
 !>!F,-<[F,B,D] !>!F,-<[F,=A,=C] !>!F,-<[F,B,D] !>!F,-<[F,A,C] | %278
 !>!F,-<[F,A,D] !>!G,-<[G,B,D] !>!F,-<[F,A,D] !>!G,-<[G,B,D] | %279
 !>!F,-<[F,A,D] !>!G,-<[G,B,D][K:treble] [^C^c]4 | [^D^c^d]4 !fermata![=Ac=a]4 || %281
[K:C][K:bass]!pp! z2 [A,^FA]2 (3z2 [A,=FA]2 z2 | z2 [G,EG]2 z2 [G,_EG]2 | %283
 z2 [F,_B,F]2 (3z2 [F,A,F]2 [=E,A,=E]2 | z2 [F,B,_D]2 z2 [A,EA]2 | %285
 z2 [F,_B,D]2 (3z2 [G,B,E]2 [F,A,F]2 | z2 [E,A,C]2 z2 [E,G,E]2 | %287
 z2 [D,F,_B,]2 (3z2 [E,G,C]2 [D,F,B,]2 | z2 [E,A,^C]2 z2 [E,A,E]2 | %289
"_poco crese." [A,CF] z [A,CF] z [G,B,D] z [G,B,D] z | [F,_B,D] z [G,C] z [F,B,] z [E,G,] z | %291
!pp! [D,A,D]4 [E,^G,E]4 | [E,A,E]4- [E,A,E]2 z2 |[K:treble]!<(! A, z _B, z ^C z D z | %294
 E z F!<)! z [A^cfa]2- [Acfa] z | z4!p! [A=cfa]4- | [Acfa]2 z2!pp! [ABfa]2- [ABfa] z | %297
 [A^cea] z z2"_poco crese." [^CEA]4 | [_B,_EG]4[K:bass]!<(! [_A,_B,F]4!<)! | %299
 ([G,_B,=E]2 [^F,G,D]2 [E,A,E]) z z2 ||[K:F]!f! [A,DA]4 [B,_EG]4 | (F2 =E2) [^F,G,E] [F,A,D]3 | %302
 [^F,G,D]4 [E,A,E]4 | [D,F,B,]4 [^C,E,A,]4 |!p!!<(! (A,2 =B,^C D2 A,2)!<)! | %305
!>(! ([^CE]2 [DF][CE] ED C2)!>)! | (A,2 =B,^C D2 D2) | %307
!mf!!<(! [A,^CE]2 [E,A,E][F,A,D]!<)! [A,EA]4 | %308
[K:treble]!ff! [Adfa]>[Adfa] [Adfa][Adfa]{/a} [B_eg]2 [Beg]2 | %309
 [A^cf]2 [Acf]>[Ace] [FBe][FBd] [A=ca]2 | [F^Gd]2 [FGe][FGf] [EAc]2!>(! [E=Ge]2 | %311
 [DFB]2 [DFc]>[DFB]!>)! [^CEA]2!>(! A,2-!>)! |!p! A,(3A,/A,/A,/ [A,=B,][A,^C] [A,D]2 [A,D]2 | %313
 A,(3A,/A,/A,/ [A,F][A,E] [F,^G,E][F,B,D] [A,A]2 | %314
!p!!<(! ([=B,DA]2 [_B,D^G][A,^C=G] [A,=C^F]2!<)! [A,C=F]2 | [A,^C]2 [^G,_B,]2 [A,C]) z (!>!AA,) | %316
!pp! [Afa]4 [G_eg]4 | [_AB]2 [GB]2 [F^c]2 [^F=c]2 | [=FB]2 [^FG]2 [EAc]2 [FBd][EAc] | %319
 [EAc]2 [E=Gc][DB] [^CEA]2- [CEA] z |!f! [Adfa]>[Adfa] [Adfa][Adfa]{/a} [B_eg]2 [Beg]2 | %321
 [A^cf]2 [Acf]>[Ac=e] [FBe][FBd] [A=ca]2 | [F^Gd]2 [FGe][FGf] [EAc]2 [E=Ge]2 | %323
 [DFB]2 [DFc][DFB] [^CEA]2- [CEA] z |!p!"_marcato" [^CFA]2 [CEA][CEA] [=B,_EG]2 [_B,EG]2 | %325
 [A,_E]2 [^G,D]2 [F,A,]2 [A,^C]2 | !^![B,DF]2 !^![G,B,G]2 !^![A,^CE]2- [A,CE] z | %327
[K:bass]!pp! [^F,G,B,]2 [E,G,B,][_E,G,^C] [D,^F,_B,D]2 [D,=F,A,D]2 | %328
!<(! [E,A,^CE]2 [F,A,CF][E,A,CE] [^F,G,E][F,A,D]!<)![K:treble] [A,^CA]2 | %329
 [_B,_E^GA]2 [=B,E=GA]2!>(! [^C=EGA]2 z2!>)! |!f! [Dd]4 [Gc_eg]2 [GBeg]2 |!<(! [FBdf]4 [EA^ce]4 | %332
 [FA^cf]4!<)! [Adfa]2 !fermata!z2 |] %333
V:3
 (^B,,,^C,,A,,^G,, ^E,,^F,,G,,A,,) | (D,^C,=E,D, ^B,,C,^E,^F,) | (^G,A,^E,^F, G,A,^C^B,) | %3
 (A,^F,^G,A, ^F4- | F4) ^C2- C !fermata!z | (^B,,,^C,,A,,^G,, ^E,,^F,,G,,A,,) | %6
 (D,^C,=E,D, ^B,,C,^E,^F,) | (^G,A,^E,^F, G,A,^C=B,) | (^G,^F,D,B,, ^C,=E,A,G,) | %9
 (^CA,^G,^F, ^C,^G,,^E,,^C,,) | %10
 ([^B,,,^B,,][^C,,^C,][^E,,^E,][^F,,^F,] [D,,D,][C,,C,][=E,,=E,][D,,D,]) | %11
 ([^B,,,^B,,][^C,,^C,][^E,,^E,][^F,,^F,] [D,,D,][C,,C,][=E,,=E,][D,,D,]) | %12
 ([^C,,^C,][D,,D,][C,,C,][^G,,^G,]) ([C,,C,][D,,D,][C,,C,][^F,,^F,]) | %13
 ([^C,,^C,][D,,D,])([C,,C,][D,,D,]) ([C,,C,][D,,D,])([C,,C,][^G,,^G,]) | %14
!>(! ([^C,,^C,]2 [D,,D,]) z ([C,,C,]2!>)! [^E,,^E,]) z | ^A,,, z ^C,, z ^F,, z ^E,, z | %16
 ^G,, z ^F,, z ^B,, z G,, z | ^E,, z ^G,, z ^D, z ^C, z | %18
[K:treble] !^![A,A]4[K:bass] !///-!=F,2 A,2 | !///-!F,2 A,2 !///-!F,2 A,2 | %20
 [E,G,A,]2- [E,G,A,] z z4 | [^F,,^F,]2 (3:2:2(([^C,,^C,]2 [D,,D,]) [A,,,A,,]) z[K:treble] [A,A]2- | %22
 [A,-A]8 | A,8 | A,8 | A,8- | [A,^C]2- [A,C] z A4- |[M:3/4] A2 z2 z2 |[M:4/4] A,8 | A,8- | A,8 | %31
 A,4- A,2 z2 | z4 !///-!^F A !///-!^E A | !///-!^F2 A2 !///-!^E A !///-!E ^G | %34
 !///-!=E ^G !///-!_E =G !///-!D2 ^F2 | [^C^E] z z2[K:bass] [^F,,^F,]2 (3:2:2([^C,,^C,]2 [D,,D,] | %36
 [A,,,A,,]) !fermata!z (A,2 =F,2 E,) z |[K:treble] !///-!F2 A2!<(! !///-!E2 ^G2!<)! | %38
 !///-!_E2!>(! =G2 !///-!D G!>)! !///-!D ^F |!<(! !///-!^C2 ^F2!<)!!>(! !///-!B, F !///-!E ^G!>)! | %40
 A z z2[K:bass] [^F,,^F,]2 (3:2:2([^C,,^C,]2 [D,,D,] | [A,,,A,,]) !fermata!z (A,2 =F,2 E,) z | %42
 (3:2:2z A,,2[K:treble] (3:2:2(A2 ^G) ^D2 E2 | =D4 E4 | (F2 ^G2 A) z z2 | %45
 z4[K:bass] [^F,,^F,]2 (3:2:2([^C,,^C,]2 [D,,D,] | [A,,,A,,]) !fermata!z (A,2 =F,2 E,) z | %47
 (^G2 (3FA,.A,,) (A2 (3GF.A,,) |[K:treble] (B2 (3A=G.A,) (^c2 (3G^C.A,) | %49
 !///-![_B,F]2 A2 !///-![=B,F]2 A2 | [^CEA] z z2 z4 | %51
 z4[K:bass] [^F,,^F,]2 (3:2:2([^C,,^C,]2 [D,,D,] | [A,,,A,,]) z z2 (A,4 | F,4 E,) z !fermata!z2 |] %54
[M:2/4] !fermata!B,4 | B,,,4 | (!>!C2 B,) z | B,,,4 | (!>!C2 B,) z | B,,,4 | (!>!C2 B,) z | B,,,4 | %62
 (!>!C2 B,) z | (B,,,2[K:treble] ^D2 | c2 B2) | (A2 G^F | B2 A) z |[K:bass] B,,,2[K:treble] (G2 | %68
 ^F2 E2) | (A4 | G4) |[K:bass] (B,,,2 ^G,2 | F2 E2 | D2 CB, | E2 D2) | (C4 | B,2 A,2) | (D4 | C4) | %79
 A,4 | B,,,4 | ^G,2- G, z | B,,,4 | ^G,2- G, z |!ped! _B,,,4-!ped-up! |!ped! B,,,4!ped-up! | %86
!ped! _E,,4!ped-up! ||[K:Gb][M:6/8] [E,,B,,G,]2 [G,,B,,G,] [F,,F,]3 | %88
 [E,,B,,G,]2 [G,,B,,G,] [F,,F,]3 | [E,,B,,G,]2 [E,,B,,G,] [D,,B,,D,]2 [D,,B,,D,] | %90
 [E,,B,,G,]2 [E,,B,,G,] [B,,,D,]3 | [E,,B,,G,]2 [G,,B,,G,] [F,,F,]3 | %92
 [E,,B,,G,]2 [G,,B,,G,] [F,,F,]3 | [E,,B,,G,]2 [E,,B,,G,] [D,,B,,D,]2 [D,,B,,D,] | %94
 [E,,B,,G,]2 [E,,B,,G,] [B,,,D,]3 | [E,,B,,G,]2 [E,,B,,G,] [A,,E,G,]2 [A,,E,G,] | %96
 [B,,D,G,]2 [B,,D,G,] [C,E,G,]2 [A,,E,A,] | [E,,B,,G,]2 [E,,B,,G,] [A,,E,G,]2 [A,,E,G,] | %98
 [B,,D,G,]2 [B,,D,G,] [C,E,G,]2 [A,,E,A,] | E,,2 E,, A,,2 A,, | E,,2 E,, D,,2 D,, | %101
 E,,2 E,, A,,2 A,, | E,,2 E,, D,,2 D,, |[M:9/8] E,,2 E,, [E,,G,,]2 [E,,G,,] [E,,G,,]2 [E,,G,,] | %104
[M:6/8] [E,,B,,G,]2 [G,,B,,G,] [F,,F,]3 | [E,,B,,G,]2 [G,,B,,G,] [F,,F,]3 | %106
 [E,,B,,G,]2 [E,,B,,G,] [A,,E,G,]2 [A,,E,G,] | [B,,D,G,]2 [B,,D,G,] [C,E,G,]2 [A,,E,A,] | %108
 [G,,B,,G,]2 [E,,B,,G,] [D,,B,,D,]2 [D,,B,,D,] | [E,,B,,G,]2 [E,,B,,G,] [B,,,D,]2 B,, | %110
 [E,,B,,G,]2 [E,,B,,G,] [A,,E,G,]2 [A,,E,G,] | [B,,D,G,]2 [B,,D,G,] [C,E,G,]2 [A,,E,A,] | %112
 E,,2 E,, A,,2 A,, | E,,2 E,, D,,2 D,, | E,,2 E,, E,,2 (E,, |!ped! G,,B,,D, G,B,D)!ped-up! | %116
!ped! G,2 G,!ped-up!!ped! G,2 G, | G,2 G, G,2 G,!ped-up! |!ped! G,2 G, G,2 G, | %119
 G,2 G, G,2 G,!ped-up! |!ped! G,2 G, G,2 G,!ped-up! |!ped! G,2 G, G,2 G, | G,2 G, G,2 G,!ped-up! | %123
!ped! G,2 G, G,2 G, | G,2 G, G,2 G, | G,2 G, G,2 G,!ped-up! | [E,,B,,G,]2 [G,,B,,G,] [F,,F,]3 | %127
 [E,,B,,G,]2 [G,,B,,G,] [F,,F,]3 |!ped! [G,,D,G,]2 G, G,2 G,!ped-up! |!ped! G,2 G, G,2 G,!ped-up! | %130
!ped! (__B,2 G, _B,2) G,!ped-up! |!ped! G,2 G, G,2 G,!ped-up! | z3 .B,,,.B,,.B,,, | %133
 z3 .B,,,.B,,.B,,, | z6 | [E,,B,,G,]2 [G,,B,,G,] [F,,F,]3 | [E,,B,,G,]2 [G,,B,,G,] [F,,F,]3 | %137
 [E,,B,,G,]2 [E,,B,,G,] [D,,B,,D,]2 [D,,B,,D,] | [E,,B,,G,]2 [E,,B,,G,] [B,,,D,]3 | %139
 [E,,B,,G,]2 [G,,B,,G,] [F,,F,]3 | [E,,B,,G,]2 [G,,B,,G,] [F,,F,]3 | %141
 [E,,B,,G,]2 [E,,B,,G,] [D,,B,,D,]2 [D,,B,,D,] | [E,,B,,G,]2 [E,,B,,G,] [B,,,D,]3 | %143
 [E,,B,,G,]2 [E,,B,,G,] [A,,E,G,]2 [A,,E,G,] | [B,,D,G,]2 [B,,D,G,] [C,E,G,]2 [A,,E,A,] | %145
 [E,,B,,G,]2 [E,,B,,G,] [A,,E,G,]2 [A,,E,G,] | [B,,D,G,]2 [B,,D,G,] [C,E,G,]2 [A,,E,A,] | %147
!ped! E,,2 E,, A,,2 A,, | E,,2 E,, D,,2 D,,!ped-up! |!ped! E,,2 E,, E,,2 E,, | %150
 E,,2 E,, E,,2 E,,!ped-up! | E,,2 E,, E,,2 E,, | E,,2 E,, E,,2 E,, | E,,2 E,, E,,2 E,, | %154
[M:9/8]!ped! E,,2 E,, E,,2 E,, E,,2 E,,!ped-up! |[M:6/8] E,,2 E,, E,,2 E,, | E,,2 E,, D,,2 D,, | %157
!ped! E,,2 E,, E,,2 E,, | E,,2 E,, E,,2 E,,!ped-up! |!ped! E,,2 E,, E,,2 E,, | E,,2 E,, E,,2 E,, | %161
 E,,2 E,, E,,2 E,, | E,,!ped-up! z z z3 | z6 | z3!ff!!ped!{/E,,,} !^![E,,B,,G,]2!ped-up! z | %165
 !fermata!z6 |][K:F][M:4/4] [F,,C,F,]4-!pp! [F,,C,F,] z z2 | [A,,E,A,]4- [A,,E,A,] z z2 | %168
 [^F,^C^F]4- [F,CF]2 !fermata!z2 | z2 (D,,/^C,,/D,,/A,,,/) z2 (E,,/^D,,/E,,/A,,,/) | %170
 z2 (^C,,/^B,,,/C,,/A,,,/) (C,,2 D,,2) | [=C,,E,,]6- [C,,E,,] z | %172
 z2 (D,,/^C,,/D,,/A,,,/) z2 (E,,/^D,,/E,,/A,,,/) | z2 (^C,,/^B,,,/C,,/A,,,/) (C,,2 D,,2) | %174
 _E,,4 [=C,,=E,,]4 | [A,,,^C,,]4 B,,,4 | (A,,,2 G,,,2){/A,,,} [A,,E,A,]2- [A,,E,A,] z | %177
 z4!pp! .D,,(D,,/E,,/) .D,,(D,,/E,,/) | %178
 .D,,(D,,/E,,/) .D,,(D,,/E,,/) .D,,(D,,/E,,/) .D,,(D,,/E,,/) | %179
 .D,,(D,,/E,,/) .D,,(D,,/E,,/) .D,,(D,,/E,,/) .D,,(D,,/E,,/) | %180
 .D,,(D,,/^C,,/) .D,,(D,,/E,,/) .D,,(D,,/C,,/) .D,,(D,,/_E,,/) | %181
 .D,,(D,,/^C,,/) .D,,(D,,/D,,/) .D,,(D,,/D,,/) .D,,(D,,/D,,/) | %182
 A,,/A,,/A,,/A,,/ A,,/A,,/A,,/A,,/ A,,/A,,/A,,/A,,/ A,,/A,,/A,,/A,,/ | %183
 A,,/A,,/A,,/A,,/ A,,/A,,/A,,/A,,/ A,,/A,,/A,,/A,,/ A,,/A,,/A,,/A,,/ | %184
 A,,/A,,/A,,/A,,/ A,,/A,,/A,,/A,,/ A,,/A,,/A,,/A,,/ A,,/A,,/A,,/A,,/ | %185
 A,,/A,,/A,,/A,,/ A,,/A,,/A,,/A,,/ A,,/A,,/A,,/A,,/ A,,/A,,/A,,/A,,/ | %186
 [D,,A,,] z [D,,A,,]4 ([D,,D,]2 | [G,,G,]) z [A,,E,] z [D,F,]2- [D,F,] z | %188
 [D,,A,,] z [D,,A,,]4 ([D,,D,]2 | [G,,G,]) z [A,,E,] z [D,F,]2- [D,F,] z | %190
[M:3/2] [D,,,D,,]2 [_A,,,_A,,]2 [D,,,D,,]2 [B,,,B,,]2 ([G,,,G,,]2 [C,,C,]2) | %191
 [D,,,D,,]2 [_A,,,_A,,]2 [D,,,D,,]2 [B,,,B,,]2 ([G,,,G,,]2 [C,,C,]2) | %192
 [D,,,D,,]2 [B,,B,]2 [G,,,G,,]2 [G,,G,]2 ([=A,,,=A,,]2 [B,,,B,,]2) | %193
 [D,,,D,,]2 [B,,B,]2 [G,,,G,,]2 [G,,G,]2 ([A,,,A,,]2 [B,,,B,,]2) |[M:4/4] (D,,2 F,,2 A,,2 D,2) | %195
[M:3/2] (_E,2 G,2 A,2 ^C2 D2 F) z |[M:4/4] (D,,2 F,,2 A,,2 D,2) | %197
[M:3/2] (_E,2 G,2 A,2 ^C2 D2 F) z |[M:4/4][K:treble] [DG]2 [DG]4 [DG]2- | [DG] z (G2 F2 D2 | %200
 E2 A2 F2- F) z | [DG]2 [DG]4 F2 | G4 G4 | [FA]2 [DF]2 [^CE]2 [A,A] z | %204
[M:3/2][K:bass] ([D,,F,,A,,]2 D,) z ([F,,A,,D,]2 F,) z!>(! ([G,,B,,_E,]2 G,)!>)! z | %205
[M:4/4] ([A,,^C,]2 A,) z [D,F,] z2 z | %206
[M:3/2]!ped! ([D,,F,,A,,]2 D,) z ([F,,A,,D,]2 F,) z!>(! ([G,,B,,_E,]2 G,)!>)! z | %207
[M:4/4] ([A,,^C,]2 A,) z [D,F,] z2 z!ped-up! | %208
[M:3/2] (D/^C/=C/^C/ D/C/D/C/ D/C/=C/^C/ D/C/D/C/!ped! D/C/=C/B,/ A,/=B,/C/!ped-up!^C/) | %209
 (D/^C/=C/B,/ A,/^G,/=G,/F,/ E,/_E,/D,/^C,/ =C,/=B,,/_B,,/A,,/!ped! B,,/C,/D,/=E,/ F,/G,/A,/!ped-up!B,/) | %210
 (D/^C/=C/^C/ D/C/D/C/ D/C/=C/^C/ D/C/D/C/!ped! D/C/=C/B,/ A,/=B,/C/!ped-up!^C/) | %211
 (D/^C/=C/B,/ A,/^G,/=G,/F,/ E,/_E,/D,/^C,/ =C,/=B,,/_B,,/A,,/!ped! B,,/C,/D,/=E,/ F,/G,/A,/!ped-up!B,/) | %212
[M:4/4]!f! (3A,,A,,A,, (3A,,A,,A,, (3^G,,G,,G,, (3G,,G,,G,, | %213
 (3F,,F,,F,, (3F,,F,,F,, (3F,,F,,F,, (3F,,F,,F,, | %214
 (3F,,!<(!F,,F,, (3F,,F,,F,,!<)!!>(! (3^F,,F,,F,, (3=F,,F,,F,,!>)! | %215
 (3G,,G,,G,, (3A,,A,,A,, (3B,,B,,B,, B,,/A,,/^G,,/=G,,/ | %216
 (3F,,!<(!F,,F,, (3F,,F,,F,,!<)!!>(! (3^F,,F,,F,, (3=F,,F,,F,,!>)! | %217
 (3G,,G,,G,, (3A,,A,,A,, (3B,,B,,B,, (3B,,B,,B,, | %218
[M:3/2] (3^G,,G,,G,, (3G,,G,,G,, (3G,,G,,A,, (3B,,B,,B,, (3=B,,B,,B,, (3C,C,C, | %219
 (3D,D,D, (3^G,,G,,G,, (3G,,G,,A,, (3B,,B,,B,, (3=B,,B,,B,, (3C,C,C, | %220
 (3D,D,D, (3F,,F,,F,, G,,/G,,/G,,/A,,/ B,,/B,,/=B,,/C,/ (3^C,C,C, (3D,D,D, | %221
 (3D,D,D, (3F,,F,,F,, (G,,/G,,/G,,/A,,/ B,,/B,,/=B,,/C,/) (3^C,C,C, (3D,D,D, | %222
[M:4/4] (3^C,C,C, (3C,C,C,!>(! (3B,,B,,B,, B,,!>)!B,, | %223
!ped! (D,,/B,,/F,/B,,/) (D,,/B,,/F,/B,,/) (D,,/B,,/F,/B,,/) (D,,/B,,/F,/B,,/)!ped-up! | %224
!ped! (D,,/B,,/F,/B,,/) (D,,/B,,/F,/B,,/) (D,,/B,,/F,/B,,/) (D,,/B,,/F,/B,,/)!ped-up! | %225
 A,,/A,,/A,,/A,,/ A,,/A,,/A,,/A,,/ A,,/A,,/A,,/A,,/ A,,/A,,/A,,/A,,/ | %226
[M:6/4]!ped! D,,/_A,,/F,/A,,/ (D,,/A,,/F,/A,,/) (D,,/A,,/F,/A,,/) (D,,/A,,/F,/A,,/)!ped-up!!ped! (D,,/^F,,/^F,/F,,/)!ped-up!!ped! (D,,/=F,,/=F,/F,,/)!ped-up! | %227
[M:4/4] A,,/A,,/A,,/A,,/ A,,/A,,/A,,/A,,/ A,,/A,,/A,,/A,,/ A,,/A,,/A,,/A,,/ | %228
!ped! (D,,/A,,/A,/A,,/) (D,,/A,,/A,/A,,/) (D,,/A,,/A,/A,,/) (D,,/A,,/A,/A,,/)!ped-up! | %229
!ped! (D,,/A,,/A,/A,,/) (D,,/A,,/A,/A,,/) (D,,/A,,/A,/A,,/) (D,,/A,,/A,/A,,/)!ped-up! | %230
!ped! (D,,/G,,/G,/G,,/) (D,,/G,,/G,/G,,/) (D,,/G,,/G,/G,,/) (D,,/G,,/G,/G,,/)!ped-up! | %231
!ped! (D,,/G,,/G,/G,,/) (D,,/G,,/G,/G,,/) (D,,/^F,,/^F,/F,,/) (D,,/F,,/F,/F,,/)!ped-up! | %232
!ped! (D,,/=A,,/=F,/A,,/) (D,,/E,,/E,/E,,/)!ped-up!!ped! (D,,/^F,,/^F,/F,,/) (D,,/F,,/F,/F,,/)!ped-up! | %233
!ped! (D,,/=A,,/=F,/A,,/) (D,,/E,,/E,/E,,/)!ped-up!!ped! (D,,/A,,/A,/A,,/) (D,,/A,,/A,/A,,/)!ped-up! | %234
 A,,/A,,/A,,/A,,/ ^G,,/G,,/G,,/G,,/ =G,,/G,,/G,,/G,,/ _G,,/G,,/F,,/F,,/ | %235
 (D,,2 A,,,) z!ped! ([DF]2 E) z!ped-up! | %236
 F,,/F,,/F,,/F,,/ E,,/E,,/E,,/E,,/ _E,,/E,,/E,,/E,,/ D,,/D,,/D,,/D,,/ | (D,,2 A,,,) z4 z | %238
!ped! [F,C]4 [A,,E,A,]4 | !fermata![D,,A,,D,]8!ped-up! |] %240
[K:Gb][M:4/4] (3(B,,,B,,,C,, (3D,,D,,E,, (3_F,,F,,G,, (3A,,A,,B,, | %241
 (3C,C,B,, (3=A,,A,,B,, (3=B,,B,,=C, (3D,D,=D,) | [E,,B,,E,]6 [F,,B,,D,]2 | %243
 [E,,B,,E,]4 [D,,A,,D,]4 | [G,,,D,,B,,]4 [D,,A,,D,]4 | %245
 (3x[K:bass] (F,,G,, (3=G,,G,,_A,, (3=A,,B,,=B,, (3=C,D,=D,) | [E,,B,,E,]6 [F,,B,,D,]2 | %247
 [E,,B,,E,]4 [D,,A,,D,]4 | [G,,,D,,B,,]4 [D,,A,,D,]4 | %249
 (3x (=C,,D,, (3=D,,D,,E,, (3=E,,F,,_G,, (3_G,,=G,,_G,,) | %250
 (3x[K:bass] (F,,G,, (3=G,,G,,_A,, (3=A,,A,,B,, (3_C,B,,A,,) | %251
 (!>![C,,C,][B,,,B,,]) (!>![C,,C,][B,,,B,,]) (!>![C,,C,][B,,,B,,]) (!>![C,,C,][B,,,B,,]) | %252
 (!>![C,,C,][B,,,B,,]) (!>![C,,C,][B,,,B,,]) (!>![C,,C,][B,,,B,,]) (!>![C,,C,][B,,,B,,]) | %253
 !>!B,,, z (3(GF_F (3E__ED (3CB,A, | (3G,F,_F, (3E,__E,D, (3C,B,,__B,, (3A,,__A,,G,,) | %255
 (!>![C,,C,][B,,,B,,]) (!>![C,,C,][B,,,B,,]) (!>![C,,C,][B,,,B,,]) (!>![C,,C,][B,,,B,,]) | %256
 (!>![C,,C,][B,,,B,,]) (!>![C,,C,][B,,,B,,]) (!>![C,,C,][B,,,B,,]) (!>![C,,C,][B,,,B,,]) | %257
 !>!B,,, z (3(A__AG (3_FED (3CB,__B, | (3A,G,_F, (3E,__E,D, (3C,B,,A,, (3G,,_F,,E,,) | %259
 !>![C,,C,]<[B,,,B,,] !>![C,,C,]<[B,,,B,,] !>![C,,C,]<[B,,,B,,] !>![C,,C,]<[B,,,B,,] | %260
 !>![C,,C,]<[B,,,B,,] !>![C,,C,]<[B,,,B,,] !>![C,,C,]<[B,,,B,,] !>![C,,C,]<[B,,,B,,] | %261
 !>![C,,C,]<[B,,,B,,] z2 !>![C,,C,]<[B,,,B,,] z2 | [E,,,E,,] z[K:treble] (3(e__ed (3cBA (3G_FE) | %263
[K:bass] !>![E,,,E,,] z (3(E__ED (3CB,A, (3G,F,_F,) | [E,,B,,] z z2 [E,,C,] z z2 | %265
 !>!G,!>!F,!>!E,!>!D, (=C,_C,B,,__B,,) | A,,2- A,, z z4 |!ped! [F,,,F,,]8!ped-up! | F,4 (B,A,G,E, | %269
 __E,C,B,,G,, C,G,,A,,_E,, | =D,,) z z2 z4 | z4 (A,2 B,2 | C4) B,4 | A,4 (E,2 F,2 | =G,) z z2 z4 | %275
 !>!D,,-<[D,,F,,A,,D,] !>!F,,-<[F,,A,,=C,] !>!D,,-<[D,,F,,A,,D,] !>!F,,-<[F,,A,,C,] | %276
 !>!D,,-<[D,,F,,A,,D,] !>!F,,-<[F,,A,,=C,] z4 | %277
 !>!B,,,-<[B,,,F,,D,] !>!F,,-<[F,,=A,,=C,] !>!B,,,-<[B,,,F,,D,] !>!F,,-<[F,,A,,C,] | %278
 !>!D,,-<[D,,_A,,D,] !>!G,,-<[G,,B,,D,] !>!D,,-<[D,,_A,,D,] !>!G,,-<[G,,B,,D,] | %279
 !>!D,,-<[D,,A,,D,] !>!G,,-<[G,,B,,D,]!ped! ^C,4!ped-up! | %280
!ped! [^C,^D,^C]4!ped-up!!ped! !fermata![=A,,,^C,,=A,,]4!ped-up! || %281
[K:C] [^F,,D,^F,]4 (3[=F,,D,=F,]2 z2 [F,,D,F,]2 | [E,,G,,E,]4 [_E,,G,,_E,]4 | %283
 [D,,_B,,D,]4 (3[^C,,A,,^C,]2 z2 z2 | [_B,,,F,,D,]4 [^C,,A,,E,]4 | %285
 [D,,_B,,D,]4 (3:2:2[D,,B,,D,]4 [D,,A,,D,]2 | [C,,A,,C,]4 [C,,G,,C,]4 | %287
 [D,,F,,_B,,]4 (3:2:2[E,,G,,C,]4 [D,,F,,B,,]2 | [^C,,E,,A,,]2 z2 [A,,,E,,A,,]2 z2 | %289
 F,,, z F,, z G,, z G,,, z | _B,,, z C,, z D,, z E,, z | F,,4 E,,4 | A,,,4- A,,,2 z2 | %293
 A,, z _B,, z ^C, z D, z | E, z F, z!ped! [A,,,A,,]2- [A,,,A,,]!ped-up! z | z4!ped! [F,,,F,,]4- | %296
 [F,,,F,,]2!ped-up! z2!ped!{/G,,,} [G,DF]2- [G,DF]!ped-up! z |!ped! [A,^CE]<A,,,- A,,,6!ped-up! | %298
!ped! A,,8!ped-up! | (A,,2 _B,,2 ^C,) z z2 ||[K:F] F,4 _E,4 | ^C,4 D,4 | B,,4 =C,4 | %303
 (G,,2 ^G,,2) A,,4 |!ped! (^G,2 =G,2 F,4)!ped-up! |!ped! (E,2 D,E, F,2!ped-up! E,2) | %306
 [^G,,^G,]!ped! [=G,,=G,]3!ped-up! [^F,,^F,]!ped! [=F,,=F,]3!ped-up! | %307
 [E,,E,]2 [^C,,^C,][D,,D,]!ped! [A,,E,]4!ped-up! | %308
 [D,,,D,,] [A,DF]2 [D,,,D,,] [G,,,G,,] [B,_EG]2 [G,,,G,,] | %309
 [A,,,A,,] [A,^CF]2 [A,CE] [B,,,B,,][F,B,D] [F,A,F][F,,,F,,] | %310
 [B,,,B,,] [F,B,D]2 [D,,D,] [C,,C,] [E,A,C][E,G,C] [C,,C,] | %311
 [G,,,G,,][D,F,B,][^G,,,^G,,][D,F,B,] [A,,,A,,][^C,E,A,] z2 | (^G, =G,3 ^F,=F,E,D, | %313
 ^C,A,,D,C, B,,^G,,A,,A,,,) | %314
 ([F,,F,][A,,,A,,]!ped![E,,E,][_E,,_E,]!ped-up! [D,,D,][A,,,A,,][^D,,^D,][A,,,A,,] | %315
 [=E,,=E,][A,,,A,,]!ped! [F,,F,]2!ped-up! [E,,E,][A,,,A,,])!ped! (!>!A,A,,)!ped-up! | %316
 .D,,,.D,,.D.D, .D,,,.D,,.D.D, | .D,,,.D,,.D.D, .D,,,.D,,.D.D, | .D,,,.D,,.D.D, .D,,,.D,,.D.D, | %319
 .D,,,.D,,.D.D, .D,,,.D,,.D.D, | D,, [A,DF]2 D,, G,, [B,_EG]2 G,, | %321
 [A,,,A,,] [A,^CF]2 [A,C=E] [B,,,B,,][F,B,D] [F,A,F][F,,,F,,] | %322
 [B,,,B,,] [F,B,D]2 [D,,D,] [C,,C,] [E,A,C][E,G,C] [C,,C,] | %323
 [G,,,G,,][D,F,B,] [^G,,,^G,,][D,F,B,] .A,,,.A,,.A,.A,, | A,,A,,A,,A,, A,,A,,A,,A,, | %325
 A,,A,,A,,A,, A,,A,,A,,A,, | !^!A,,A,,!^!A,,A,, !^!A,,A,,A,,A,, | %327
 A,,,"^marcato"A,,,A,,,A,,, A,,,A,,,A,,,A,,, | A,,,A,,,A,,,A,,, A,,,A,,,A,,,A,,, | %329
 A,,,A,,,A,,,A,,, A,,,A,,,A,,,A,,, |!ped! [D,,D,]4!ped-up!!ped! [C,,_E,]2 [_E,,E,]2!ped-up! | %331
!ped! [D,,D,]4!ped-up!!ped! [A,,,A,,]4- | %332
 [A,,,A,,]4!ped-up!!ped!{/D,,,} [D,,A,,D,]2 !fermata!z2!ped-up! |] %333
V:4
 x8 | x8 | x8 | x8 | x4 [^E^c]2- [Ec] x |[K:bass] x8 |[K:treble] x8 | x8 | x8 | x4[K:bass] x4 | %10
 x4[K:bass] x4 | x4[K:bass] x4 | x4 (^G2 ^F2) |[K:bass] x8 | x8 | x8 | x8 | x8 |[K:treble] x8 | %19
 x8 | x8 | x4 A, x3 | x8 | x8 | x4 [=G_B^c]2- [GBc] x | [^FA=c]3 [=F^GB] ^F2 [=FG]2 | e2- e x5 | %27
[M:3/4] x6 |[M:4/4] x8 | x8 | x8 | x8 | x4 A4 | ^B4 ^c4 | ^c4 (c4 | ^G) x7 | [A,A] x A4- A x | x8 | %38
 x8 | (A4 [Ad]2 B2 | ^c) x7 | [A,A] x A4- A x | x8 | [Af]4 [^GB]4 | x8 | x8 | [A,A] x A4- A x | %47
 x8 | x8 | x8 | x8 | x8 | [A,A] x7 | x8 |][M:2/4] x4 | x4 | x4 | x4 | x4 | x4 | x4 | x4 | x4 | x4 | %64
 x4 | x4 | x4 | x4 | x4 | x4 | x4 | x4 | x4 | x4 | x4 | x4 | x4 | x4 | x4 | x4 | x4 | x4 | x4 | %83
 x4 | x4 | x4 | x4 ||[K:Gb][M:6/8] x3 E2!>(!{EF} (E/=D/)!>)! | x3 E2!>(!{EF} (E/=D/)!>)! | %89
 x3 d=cd | [B,E]3 [B,F]3 | x3 E2!>(!{EF} (E/=D/)!>)! | x3 E2!>(!{EF} (E/=D/)!>)! | x3 d=cd | %94
 [B,E]3 [B,F]3 | x6 | x6 | x6 | x6 |[K:bass] =G,3 [F,A,]3 | B,3 E3 | =G,3 CB,C | B,>=A,B, E3 | %103
[M:9/8] =G,3!>(! _G,6!>)! |[M:6/8][K:treble] x3 E{EF}(E!>(!=D)!>)! | x3 E{EF}(E!>(!=D)!>)! | x6 | %107
 x6 | x3 d=cd | B=AB d2 x | x6 | x6 |[K:bass] =G,3 [F,A,]3 | B,3 E3 | B,3 B,3- | B,2 x4 | %116
[K:treble] g3 (_f3- | fg=c _f3 | __e3 _f2 e | G2 x Ac__e | d3) Ggd | g3 _f3- | fg=c _f3 | %123
 __e3 _f2 e | G2 x Ac__e | d3 G2 x | x3 E2{EF} E/!>(!=D/!>)! | x3 E2{EF} E/!>(!__D/!>)! | %128
 B,3 _FAc | x6 | __E3 B__eg | [_E_e]4 x2 | x6 | x6 | [B,B]6 | x3 E2!>(!{EF} (E/=D/)!>)! | %136
 x3 E2!>(!{EF} (E/=D/)!>)! | x3 d=cd | [B,E]3 [B,F]3 | x3 E2!>(!{EF} (E/=D/)!>)! | %140
 x3 E2!>(!{EF} (E/=D/)!>)! | x3 d=cd | [B,E]3 [B,F]3 | x6 | x6 | x6 | x6 | =G,3 [F,A,]3 | x6 | %149
 x3 (cBc) | x6 | x6 | x6 | x6 |[M:9/8] x9 |[M:6/8] x6 | x6 | x6 | x6 | x6 | x6 | x6 | x6 | x6 | %164
 x6 | x6 |][K:F][M:4/4] x8 | x8 | x8 |[K:bass] x8 | x8 | x8 | x8 | x8 | x8 | x8 | x4[K:treble] x4 | %177
 x8 |[K:bass] x8 | x8 | x8 | (^F,2 =F,2 E,2 _E,) x |[K:treble] .[A,DF].[DF] x6 | .[A,DF].[DF] x6 | %184
 x8 | x8 | [DF] x [DF]2- [DF] x3 | x4 [A,D]2- [A,D] x | [DF] x [DF]2- [DF] x3 | %189
 x4 [A,D]2- [A,D] x |[M:3/2] x2[K:bass] x10 | x2[K:bass] x10 | x2[K:treble] x10 | x12 | %194
[M:4/4] [df]2 [df]2 x4 |[M:3/2] x12 |[M:4/4] [df]2 [df]2 x4 |[M:3/2] x12 |[M:4/4] B2 B4 B2- | %199
 B x7 | x8 | =B2 B4 A2 | =B4 c4 | x8 |[M:3/2] x12 |[M:4/4] x2[K:bass] x6 |[M:3/2][K:treble] x12 | %207
[M:4/4] x2[K:bass] x6 |[M:3/2][K:treble] [GB]4 [GB]4 ([GB]2 [^c=e]2) | [dfa]4 [^cea]4 [Bdf]4 | %210
 [GB]4 [GB]4 ([GB]2 [^c=e]2) | [dfa]4 [^cea]4 [Bdf]4 |[M:4/4] x8 | x8 | x8 | x8 | x8 | x8 | %218
[M:3/2] x2[K:bass] x10 | x12 | x12 | x12 |[M:4/4] x8 |[K:treble] x8 | x8 | [DF] x7 |[M:6/4] x12 | %227
[M:4/4] [DF] x7 | x8 | x8 | x8 | x8 | ([FA]2 [EG]2) [D^F]2- [DF] x | ([=FA]2 [EG]2) [EG]2- [EG] z | %234
 [DF] x7 | x4 (A2 G) z |[K:bass] [D,F,] x7 | x8 |[K:treble] x8 | x8 |][K:Gb][M:4/4][K:bass] x8 | %241
 x8 | (3B,B,B, (3B,B,B, (3B,B,B, (3B,B,B, | (3B,B,B, (3B,B,B, (3A,DD (3DDD | %244
 (3B,DD (3DDD (3A,DD (3DDD |[K:treble] [F=Aef][K:bass] x7 | (3B,B,B, (3B,B,B, (3B,B,B, (3B,B,B, | %247
 (3B,B,B, (3B,B,B, (3A,DD (3DDD | (3B,DD (3DDD (3A,DD (3DDD |[K:treble] [=C=EB=c][K:bass] x7 | %250
[K:treble] [F=Aef][K:bass] x7 | x2 !>!C>B,[K:treble] !>!c>B !>!c'>b | %252
!8va(! !>!c''>b'!8va)! !>!c'>b !>!c>B[K:bass] !>!C>B, | x2[K:treble] x6 | x8 | %255
 x2 !>!E<D !>!e<d !>!e'<d' |!8va(! !>!e''<d''!8va)! !>!e'<d' !>!e<d[K:bass] !>!E<D | %257
 x2[K:treble] x6 | x8 | x2 !>!A<=G !>!a<=g!8va(! !>!a'<=g'!8va)! | %260
 x2 !>!B<A !>!b<a!8va(! !>!b'<a'!8va)! | x8 | x8 | x8 | %264
[K:bass] (3(!>!E__ED (3CB,A,) (3(!>!_EDC (3B,_A,_G,) |[K:treble] [B,E] z z2 x4 | x8 | x8 | x8 | %269
 x8 | x8 | x8 | x4 (e2 d) z | (d2 c) z x4 | x8 |[K:bass] x8 | x8 | x8 | x8 | x4[K:treble] x4 | %280
 x4 (^d!p! !fermata!=e3) ||[K:C][K:bass] x8 | x8 | x8 | x8 | x8 | x8 | x8 | x8 | A2 AA G2 G2 | %290
 F2 (FE) (ED) C2 | x8 | x8 |[K:treble] x8 | x8 | x8 | x8 | x8 | x4[K:bass] x4 | x8 ||[K:F] x8 | %301
 [F,A,]4 x4 | x8 | x8 | A,2 A,2 A,2 A,2 | A,2 A,2 ([^G,_B,]2 A,2) | A,2 A,2 A,2 A,2 | x8 | %308
[K:treble] x8 | x8 | x8 | x8 | x8 | E2 x6 | x8 | (E2 ED A) x3 | (^c2 d2) (=B2 _B2) | %317
 (f2 fe ed a2) | d2 ef x4 | x8 | x8 | x8 | x8 | x8 | x8 | F2 F=E ED A2 | x8 |[K:bass] x8 | %328
 x6[K:treble] x2 | x8 | x8 | x8 | x8 |] %333
V:5
 x8 | x8 | x8 | x8 | x8 | x8 | x8 | x8 | x8 | x8 | x8 | x8 | x8 | x8 | x8 | x8 | x8 | x8 | %18
[K:treble] x4[K:bass] ^D,2 z2 | =D,2 x2 ^D,2 x2 | x8 | x6[K:treble] x2 | x8 | x8 | A4- A2- A z | %25
 x4 D4 | x4 A,4- |[M:3/4] A,4 x2 |[M:4/4] x8 | x8 | x8 | x8 | x8 | x8 | x8 | x4[K:bass] x4 | %36
 x2 A,,4- A,, x |[K:treble] x8 | x8 | x8 | x4[K:bass] x4 | x2 A,,4- A,, x | %42
 [=FA]2[K:treble] E2 x4 | x8 | (E4 A) x3 | x4[K:bass] x4 | x2 A,,4- A,, x | x8 |[K:treble] x8 | %49
 x8 | x8 | x4[K:bass] x4 | x4 A,,4- | A,,4- A,, x3 |][M:2/4] x4 | x4 | x4 | x4 | x4 | x4 | x4 | %61
 x4 | x4 | x2[K:treble] x2 | x4 | x4 | x4 |[K:bass] x2[K:treble] x2 | x4 | x4 | x4 |[K:bass] x4 | %72
 x4 | x4 | x4 | x4 | x4 | x4 | x4 | x4 | x4 | x4 | x4 | x4 | x4 | x4 | x4 || %87
[K:Gb][M:6/8] x3 (B,,2 C,) | x3 (B,,2 C,) | x6 | x6 | x3 (B,,2 C,) | x3 (B,,2 C,) | x6 | x6 | x6 | %96
 x6 | x6 | x6 | x6 | x6 | x6 | x6 |[M:9/8] x9 |[M:6/8] x3 (B,, C,2) | x3 (B,, C,2) | x6 | x6 | x6 | %109
 x6 | x6 | x6 | x6 | x6 | x6 | x6 | [D_F]3 [=CF]3- | [CF]3 [=C_F]3 | [=C__E]6 | [_C__E]6 | %120
 [B,D]3- [B,D]2 z | [D_F]3 [=CF]3- | [CF]3 [=C_F]3 | [=C__E]6 | [_C__E]6 | [B,D]3- [B,D]2 x | %126
 x3 (B,,2 C,) | x3 (B,,2 C,) | x3 A,3 | C6 | G,2 x G,3 | (C3 B,3) | x6 | x6 | x6 | x3 (B,,2 C,) | %136
 x3 (B,,2 C,) | x6 | x6 | x3 (B,,2 C,) | x3 (B,,2 C,) | x6 | x6 | x6 | x6 | x6 | x6 | x6 | x6 | %149
 x6 | x6 | x6 | x6 | x6 |[M:9/8] x9 |[M:6/8] x6 | x6 | x6 | x6 | x6 | x6 | x6 | x6 | x6 | x6 | %165
 x6 |][K:F][M:4/4] z4 C,,=B,,,C,,A,,, | z4 C,,=B,,,C,,A,,, | x8 | x8 | x8 | x8 | x8 | x8 | x8 | %175
 x8 | x8 | x8 | D, z F,, z D, z G,, z | D, z ^C, z D, z B,, z | D, z G,, z D, z _E,2 | %181
 (D,2 ^C,2 =C,2 ^C,) z | [D,,D,] z D,, z D,, z D,, z | [D,,D,] z D,, z D,, z D,, z | %184
 D,, z D,, z D,, z D,, z | D,, z D,, z D,, z D,, z | x8 | x8 | x8 | x8 |[M:3/2] x12 | x12 | x12 | %193
 x12 |[M:4/4] x8 |[M:3/2] x12 |[M:4/4] x8 |[M:3/2] x12 |[M:4/4][K:treble] x8 | z2 D2 D4- | %200
 D4 D2- D z | x6 D2- | D4 C2 E2 | x8 |[M:3/2][K:bass] x12 |[M:4/4] x321/40 |[M:3/2] x12 | %207
[M:4/4] x321/40 |[M:3/2] x12 | x12 | x12 | x12 |[M:4/4] x8 | x8 | D,,8 | D,,8 | D,,8 | D,,8 | %218
[M:3/2] x12 | x12 | x8 D,,2- D,, z | z8 D,,2- D,, z |[M:4/4] x8 | x8 | x8 | %225
 D,, z D,, z D,, z D,, z |[M:6/4] x12 |[M:4/4] D,, z D,, z D,, z D,, z | x8 | x8 | x8 | x8 | x8 | %233
 x8 | x8 | x8 | x8 | x8 | x8 | x8 |][K:Gb][M:4/4] x8 | x8 | x8 | x8 | x8 | %245
 [F,,,=C,,=A,,][K:bass] x7 | x8 | x8 | x8 | [=C,,=G,,=E,] x7 | [F,,,=C,,=A,,][K:bass] x7 | x8 | %252
 x8 | x8 | x8 | x8 | x8 | x8 | x8 | x8 | x8 | x8 | x2[K:treble] x6 |[K:bass] x8 | %264
 (3(!>!E,__E,D, (3C,B,,A,,) (3(!>!_E,D,C, (3B,,_A,,G,,) | [E,,B,,] z z2 x4 | x8 | x8 | x8 | x8 | %270
 x8 | x8 | x8 | x8 | x8 | x8 | x8 | x8 | x8 | x8 | x4 (^D,, !fermata!=E,,3) ||[K:C] x8 | x8 | x8 | %284
 x8 | x8 | x8 | x8 | x8 | x8 | x8 | x8 | x8 | x8 | x8 | x8 | x8 | x8 | x8 | x8 ||[K:F] x8 | x8 | %302
 x8 | x8 | x8 | x8 | x8 | x8 | x8 | x8 | x8 | x8 | x8 | x8 | x8 | x8 | x8 | x8 | x8 | x8 | x8 | %321
 x8 | x8 | x8 | D,, z D,, z D,, z D,, z | D,, z D,, z D,, z D,, z | D,, z D,, z D,,4 | %327
 D,,, z D,,, z D,,, z D,,, z | D,,, z D,,, z D,,, z D,,, z | D,,, z D,,, z D,,,2- D,,, z | x8 | %331
 x8 | x8 |] %333

